build/images/fb-icons/info.svg

<svg xmlns="http://www.w3.org/2000/svg" preserveAspectRatio="xMidYMid" width="13" height="13" viewBox="0 0 13 13"><defs><style>.cls-1{fill:#777;opacity:.5;fill-rule:evenodd}</style></defs><path d="M6.5 0a6.5 6.5 0 1 0 0 13 6.5 6.5 0 0 0 0-13zm0 2C7.328 2 8 2.674 8 3.505c0 .832-.672 1.506-1.5 1.506S5 4.337 5 3.505C5 2.674 5.672 2 6.5 2zm1.125 9h-2.25C5.168 11 5 10.783 5 10.514s.168-.486.375-.486h.375V6.889h-.375c-.207 0-.375-.218-.375-.486 0-.269.168-.486.375-.486h1.5c.207 0 .375.217.375.486v3.625h.375c.207 0 .375.217.375.486S7.832 11 7.625 11z" class="cls-1"/></svg>

<svg xmlns="http://www.w3.org/2000/svg" xmlns:xlink="http://www.w3.org/1999/xlink" preserveAspectRatio="xMidYMid" width="13" height="13" viewBox="0 0 13 13">
  <defs>
    <style>
      .cls-1 {
        fill: #777;
        opacity: 0.5;
        fill-rule: evenodd;
      }
    </style>
  </defs>
  <path d="M6.500,-0.000 C2.910,-0.000 -0.000,2.910 -0.000,6.500 C-0.000,10.090 2.910,13.000 6.500,13.000 C10.090,13.000 13.000,10.090 13.000,6.500 C13.000,2.910 10.090,-0.000 6.500,-0.000 ZM6.500,2.000 C7.328,2.000 8.000,2.674 8.000,3.505 C8.000,4.337 7.328,5.011 6.500,5.011 C5.672,5.011 5.000,4.337 5.000,3.505 C5.000,2.674 5.672,2.000 6.500,2.000 ZM7.625,11.000 L5.375,11.000 C5.168,11.000 5.000,10.783 5.000,10.514 C5.000,10.245 5.168,10.028 5.375,10.028 L5.750,10.028 L5.750,6.889 L5.375,6.889 C5.168,6.889 5.000,6.671 5.000,6.403 C5.000,6.134 5.168,5.917 5.375,5.917 L6.875,5.917 C7.082,5.917 7.250,6.134 7.250,6.403 L7.250,10.028 L7.625,10.028 C7.832,10.028 8.000,10.245 8.000,10.514 C8.000,10.783 7.832,11.000 7.625,11.000 Z" class="cls-1"/>
</svg>
